svg/rhombus_medium_outline.svg

<svg xmlns="http://www.w3.org/2000/svg" viewBox="0 0 24 24"><path d="M12 6.46c-.28 0-.56.1-.78.32l-4.44 4.44c-.43.43-.43 1.13 0 1.56l4.44 4.44c.43.43 1.13.43 1.56 0l4.44-4.44c.43-.43.43-1.13 0-1.56l-4.44-4.44c-.22-.22-.5-.32-.78-.32m0 2.37L15.17 12 12 15.17 8.83 12z"/></svg>

<?xml version="1.0" encoding="UTF-8"?><!DOCTYPE svg PUBLIC "-//W3C//DTD SVG 1.1//EN" "http://www.w3.org/Graphics/SVG/1.1/DTD/svg11.dtd"><svg xmlns="http://www.w3.org/2000/svg" xmlns:xlink="http://www.w3.org/1999/xlink" version="1.1" id="mdi-rhombus-medium-outline" width="24" height="24" viewBox="0 0 24 24"><path d="M12 6.46C11.72 6.46 11.44 6.56 11.22 6.78L6.78 11.22C6.35 11.65 6.35 12.35 6.78 12.78L11.22 17.22C11.65 17.65 12.35 17.65 12.78 17.22L17.22 12.78C17.65 12.35 17.65 11.65 17.22 11.22L12.78 6.78C12.56 6.56 12.28 6.46 12 6.46M12 8.83L15.17 12L12 15.17L8.83 12L12 8.83Z" /></svg>
